X: 2189
T: Şu Dereler Şu Düzler
C: Sabri Çörek
O: Turkey
F: http://compmusic.upf.edu/node/140
N: rast--turku--sofyan--su_dereler--orta_anadolu
N: makam= rast
N: form= turku
N: usul= sofyan = 4/4
M: 4/4
L: 1/16
K: C _1/4B ^f  
Q: 1/4=108
%%MIDI tuningsystem comma53
B2BA AGAF G4 Bcd2  | B2BA AGAF G8  | \
w:  ARANAĞME  |   | 
B2BA AGAF G4 Bcd2  | 
w:  ARANAĞME  | 
B2BA AGAF G3c Bcd2  | z2Bc dd3 dd3 d2c2  | 
w:   |  Şu  de re ler  şu  düz ler    | 
e2e2 d2dB c4 B4  | d2dB c2cB B3A A2AG  | \
w:  Am man_ am man_ *  am man    |  Kem kin  *  dö kü *  len  *  söz ler    | 
B2BA AGAF G4 Bcd2  | 
w:  Bom bi li  bi li  bi li  bom  bom    | 
B2BA AGAF G3c Bcd2  | z2Bc dd3 dd3 d2c2  | 
w:  Bom  bi li  bi li  bi li  bom   SAZ  |  Gi ne  mi  sür me len di    | 
e2e2 d2dB c4 B4  | d2dB c2cB B3A A2AG  | \
w:  Am man_ am man_ *  am man    |  O cak  *  sön dü *  ren  *  göz ler    | 
B2BA AGAF .G4 Bcd2  | 
w:  Bom  bi li  bi li  bi li  bom  bom    | 
B2BA AGAF G4 z4  | B2BA AGAF .G4 Bcd2  | \
w:  Bom  bi li  bi li  bi li  bom    |  Bom  bi li  bi li  bi li  bom  bom    | 
B2BA AGAF G4 z4  | 
w:  Bom  bi li  bi li  bi li  bom    | 
B2BA AGAF G4 Bcd2  | B2BA AGAF G8  | \
w:  ARANAĞME  |   | 
B2BA AGAF G4 Bcd2  | 
w:  ARANAĞME  | 
B2BA AGAF G3c Bcd2  | z2Bc dd3 dd3 d2c2  | 
w:   |  Şu  de re ler  şu  düz ler    | 
e2e2 d2dB c4 B4  | d2dB c2cB B3A A2AG  | \
w:  Am man_ am man_ *  am man    |  Kem kin  *  dö kü *  len  *  söz ler    | 
B2BA AGAF G4 Bcd2  | 
w:  Bom bi li  bi li  bi li  bom  bom    | 
B2BA AGAF G3c Bcd2  | z2Bc dd3 dd3 d2c2  | 
w:  Bom  bi li  bi li  bi li  bom   SAZ  |  Gi ne  mi  sür me len di    | 
e2e2 d2dB c4 B4  | d2dB c2cB B3A A2AG  | \
w:  Am man_ am man_ *  am man    |  O cak  *  sön dü *  ren  *  göz ler    | 
B2BA AGAF .G4 Bcd2  | 
w:  Bom  bi li  bi li  bi li  bom  bom    | 
B2BA AGAF G4 z4  | B2BA AGAF .G4 Bcd2  | \
w:  Bom  bi li  bi li  bi li  bom    |  Bom  bi li  bi li  bi li  bom  bom    | 
B2BA AGAF G4 z4  | 
w:  Bom  bi li  bi li  bi li  bom    | 
|


